client/public/img/killfeed/revitalizer_killfeed.svg

<?xml version="1.0" encoding="UTF-8" standalone="no"?>
<svg
   width="60.865795"
   height="15.999991"
   viewBox="0 0 60.865795 15.999991"
   fill="none"
   version="1.1"
   id="svg18"
   xmlns="http://www.w3.org/2000/svg"
   xmlns:svg="http://www.w3.org/2000/svg">
  <circle
     cx="20.118546"
     cy="5.4528131"
     r="0.792445"
     fill="url(#paint0_radial_1354_46)"
     id="circle1"
     style="fill:url(#paint0_radial_1354_46);stroke-width:1.00005" />
  <path
     d="M 58.863105,2.531361 47.370283,6.5226623 47.944209,6.8714982 47.370283,7.309368 48.084615,7.8183312 47.370283,8.1173347 59.714644,10.681041 55.742463,7.8183312 60.865796,6.3966566 55.481851,5.7201058 Z"
     fill="url(#paint1_radial_1354_46)"
     id="path1"
     style="fill:url(#paint1_radial_1354_46);stroke-width:1.00005" />
  <path
     d="m 45.880115,3.2599141 h 0.921042 v 0.8611991 h 0.861139 V 5.042075 H 46.801157 V 5.9033142 H 45.880115 V 5.042075 H 45.018876 V 4.1211132 h 0.861239 z"
     fill="#c65353"
     id="path2"
     style="stroke-width:1.00005" />
  <path
     d="M 44.189738,3.4454725 H 43.368001 V 2.6770476 H 42.599566 V 1.8553003 h 0.768435 V 1.0868454 h 0.821737 v 0.7684549 h 0.768435 v 0.8217473 h -0.768435 z"
     fill="#c65353"
     id="path3"
     style="stroke-width:1.00005" />
  <path
     d="M 41.744627,5.0490554 H 41.024695 V 4.3758248 H 40.351464 V 3.6558821 h 0.673231 V 2.9826115 h 0.719932 v 0.6732706 h 0.673231 v 0.7199427 h -0.673231 z"
     fill="#c65353"
     id="path4"
     style="stroke-width:1.00005" />
  <path
     d="m 39.337518,0.7363595 h 0.672331 V 1.365058 h 0.628728 V 2.0373786 H 40.009849 V 2.6661071 H 39.337518 V 2.0373786 H 38.708789 V 1.365058 h 0.628729 z"
     fill="#c65353"
     id="path5"
     style="stroke-width:1.00005" />
  <path
     d="m 36.863406,2.1192323 h 0.609927 v 0.5703559 h 0.570426 V 3.2995159 H 37.473333 V 3.8698918 H 36.863406 V 3.2995159 H 36.29308 V 2.6895882 h 0.570326 z"
     fill="#c65353"
     id="path6"
     style="stroke-width:1.00005" />
  <path
     d="m 35.073524,0 h 0.512924 v 0.4796078 h 0.479621 V 0.9925011 H 35.586448 V 1.4721329 H 35.073524 V 0.9925011 H 34.594003 V 0.4796078 h 0.479521 z"
     fill="#c65353"
     id="path7"
     style="stroke-width:1.00005" />
  <path
     d="m 32.045087,1.9961867 h 0.305014 v 0.2851729 h 0.285213 V 2.5863135 H 32.350101 V 2.8715064 H 32.045087 V 2.5863135 H 31.759974 V 2.2813596 h 0.285113 z"
     fill="#c65353"
     id="path8"
     style="stroke-width:1.00005" />
  <path
     fill-rule="evenodd"
     clip-rule="evenodd"
     d="m 23.279789,5.3533592 c 0.183508,4.8e-4 0.310814,0.072233 0.419319,0.1691077 0.0524,0.046662 0.105104,0.1040947 0.153007,0.1563971 0.0479,0.052192 0.0959,0.1046147 0.150906,0.1568371 0.21601,0.2052293 0.553526,0.4221592 1.336961,0.4221592 h 1.994391 c 0.0606,0 0.114105,0.025441 0.153307,0.047832 0.0295,0.016851 0.0618,0.038702 0.091,0.058513 l 3e-4,2.1e-4 5e-4,3.1e-4 0.0129,0.00875 c 0.0049,0.0033 0.0097,0.00651 0.0143,0.00958 0.0799,0.053092 0.147307,0.088584 0.21821,0.088584 h 17.112077 c 0.0018,-6.5e-4 0.0123,-0.00443 0.0351,-0.023381 0.0135,-0.011151 0.0286,-0.025341 0.0456,-0.041262 0.0167,-0.015571 0.0364,-0.033992 0.0573,-0.051042 0.0402,-0.032661 0.100004,-0.073363 0.176908,-0.077444 0.0823,-0.00437 0.156107,0.033852 0.22131,0.098745 l 10e-5,-1.2e-4 c 0.0205,-0.020401 0.0483,-0.031862 0.0773,-0.031862 h 1.222556 c 0.0604,0 0.109305,0.048712 0.109305,0.108795 v 1.6049229 c 0,0.065963 -0.0585,0.1167453 -0.124106,0.1077949 L 45.381193,7.9790085 c -0.0541,-0.00738 -0.09451,-0.053413 -0.09451,-0.1077949 V 6.6079362 c 0,-0.028801 0.0115,-0.056423 0.0319,-0.076814 -0.0376,-0.037412 -0.0545,-0.035392 -0.0551,-0.035322 -0.0055,2.9e-4 -0.0198,0.004 -0.0501,0.028601 -0.0142,0.011591 -0.0288,0.025071 -0.046,0.041172 -0.0155,0.014531 -0.0366,0.034342 -0.0552,0.049742 -0.0366,0.030371 -0.0964,0.073923 -0.174008,0.073923 l 0.129906,6e-5 v 1.1502222 h -0.0169 v 0.080244 c 0,0 -0.322515,0.026741 -0.537525,0.2407209 -0.21501,0.2139797 -0.21501,0.374457 -0.21501,0.374457 V 9.2303739 H 43.868627 V 9.711796 H 42.094846 V 9.551389 h -0.161707 c 1e-4,-0.0032 2e-4,-0.0064 3e-4,-0.0095 0,-0.0025 1e-4,-0.005 1e-4,-0.0075 10e-5,-0.0032 10e-5,-0.0065 10e-5,-0.0098 V 8.4012276 h 0.161207 V 8.2139891 h 0.0538 v -0.374457 h -0.473022 c -0.0369,-0.022531 -0.0766,-0.040522 -0.118205,-0.053482 h -8.008764 c -0.21401,0.065553 -0.292413,0.1382059 -0.314914,0.3105037 L 27.639787,8.2867924 V 6.6893099 l 0.185108,-7e-5 c -0.142606,0 -0.258612,-0.071403 -0.339615,-0.1252057 -0.0131,-0.00874 -0.0253,-0.016961 -0.0364,-0.024471 -0.0266,-0.018031 -0.0483,-0.032731 -0.07,-0.045132 -0.0143,-0.00815 -0.0251,-0.013201 -0.0334,-0.016121 -0.0078,-0.00278 -0.0111,-0.00286 -0.0111,-0.00286 h -0.0162 c 0.0573,0.00241 0.102905,0.049342 0.102905,0.1068948 v 3.07595 c 0,0.0591 -0.0481,0.107005 -0.107505,0.107005 H 26.507343 V 9.644894 c 0,-0.118205 -0.0963,-0.21401 -0.21501,-0.21401 h -3.251847 c -0.118806,0 -0.21501,0.09581 -0.21501,0.21401 V 9.7653 h -0.714933 -10e-5 -2.997536 L 18.993694,9.2583066 h 1.512669 c 0.117305,0 0.22251,-0.052672 0.292813,-0.1359962 h 0.241111 c 0.180108,0 0.327915,-0.1456066 0.327915,-0.3274249 v -0.01236 c 0.122605,-0.099805 0.201109,-0.2519815 0.201109,-0.4227892 0,-0.1708078 -0.0785,-0.3229847 -0.201109,-0.4227892 V 7.924506 c 0,-0.1818083 -0.147807,-0.3274249 -0.327915,-0.3274249 H 20.799176 C 20.728873,7.5137673 20.623668,7.4610849 20.506363,7.4610849 H 18.571275 L 18.412867,6.7875143 C 19.044596,6.6068161 19.662624,6.4892908 19.988439,6.4765202 V 6.2577903 h 0.0548 l -0.517524,-1.54072 c -0.0284,-0.076303 0.0344,-0.1554371 0.115505,-0.1457366 l 3.530361,0.4213691 c 0.0549,0.00656 0.0913,0.053382 0.0963,0.1080249 z m 0.0974,0.9044311 h -0.0546 l -0.0325,-0.6866912 c 0.109505,0.00279 0.184808,0.043562 0.263112,0.1133951 0.0428,0.038132 0.0897,0.088904 0.138906,0.1426065 0.0469,0.051172 0.09941,0.1084849 0.159908,0.1660076 0.257011,0.244121 0.643829,0.4768216 1.458766,0.4822519 h -1.933588 z m 19.416482,1.5817418 v 0.374457 h 1.074949 v -0.374467 z"
     fill="#d9d9d9"
     id="path9"
     style="stroke-width:1.00005" />
  <path
     d="M 33.22614,8.4012276 V 9.55139 H 27.639787 V 8.4012276 Z"
     fill="#d9d9d9"
     id="path10"
     style="stroke-width:1.00005" />
  <path
     d="m 18.638478,10.052913 c 0.0845,-0.0221 0.176208,-0.045 0.275912,-0.069 h 0.970844 c -0.202909,0.135206 -0.310314,0.321814 -0.351916,0.463521 -0.0228,0.108405 -0.0258,0.23711 0.0064,0.340415 0.0135,0.043 0.0331,0.0894 0.0607,0.141006 0.0026,0.0047 0.0044,0.0093 0.0058,0.014 0.0034,0.0121 0.003,0.0238 -4e-4,0.0346 -0.0157,0.0512 -0.09511,0.0831 -0.126306,0.045 -0.139106,-0.169708 -0.21411,-0.283313 -0.241911,-0.42792 -0.0226,-0.118005 -0.0018,-0.23661 0.0451,-0.387417 0.0027,-0.0088 0.0055,-0.0176 0.0084,-0.0266 -0.104604,0.105105 -0.169607,0.239311 -0.174408,0.413919 -0.0063,0.227411 0.134407,0.374517 0.376318,0.508223 0.150906,0.0834 0.359216,0.0877 0.581026,0.0922 0.0212,5e-4 0.0426,9e-4 0.0639,0.0014 0.564425,0.0134 0.88684,-0.321015 0.88684,-0.65533 0,-0.187109 -0.0537,-0.347716 -0.21491,-0.481422 -0.0335,-0.0277 -0.072,-0.0532 -0.116405,-0.0756 h 0.955943 c -0.247711,0.163407 -0.396118,0.358116 -0.396118,0.503522 v 0.107005 c 0,0.347716 -0.282212,0.722233 -0.537524,0.748934 -0.305014,0.032 -0.739734,0.0452 -1.034647,0 -0.524124,-0.0802 -0.792836,-0.45472 -0.792836,-0.682031 v -0.200609 c 0,-0.110005 -0.109105,-0.279112 -0.249811,-0.407818 z"
     fill="#d9d9d9"
     id="path11"
     style="stroke-width:1.00005" />
  <path
     fill-rule="evenodd"
     clip-rule="evenodd"
     d="M 4.4713344,7.439364 4.2938964,8.0333409 H 17.379421 V 7.924506 c 0,-0.060083 0.049,-0.108795 0.109304,-0.108795 h 0.451021 c 0.013,-0.077184 0.0804,-0.1359961 0.161707,-0.1359961 h 2.40491 c 0.0813,0 0.148706,0.058813 0.161707,0.1359961 h 0.372217 c 0.0604,0 0.109305,0.048712 0.109305,0.108795 v 0.1337461 c 0.118105,0.049122 0.201109,0.1656075 0.201109,0.3014837 0,0.1188954 -0.0636,0.2229401 -0.158607,0.2800027 -0.0135,0.00815 -0.0277,0.015341 -0.0425,0.021481 v 0.133666 c 0,0.060083 -0.0489,0.108795 -0.109305,0.108795 h -0.372217 c -0.013,0.077184 -0.0804,0.1359961 -0.161707,0.1359961 h -2.40491 c -0.0813,0 -0.148706,-0.058813 -0.161707,-0.1359961 h -0.451021 c -0.0603,0 -0.109304,-0.048712 -0.109304,-0.108795 V 8.6861206 H 6.0434358 c -0.4832119,0 -0.9090913,0.3172444 -1.0474175,0.7802654 L 4.2369638,12.006901 C 4.0986275,12.469922 3.6727481,12.787137 3.1895362,12.787137 H 2.8738519 l -0.4507905,1.509068 c -0.047532,0.159108 -0.1811583,0.278613 -0.3454857,0.302614 -0.5556353,0.081 -0.9517333,0.0832 -1.4796742,0.0088 C 0.40589678,14.580618 0.25973414,14.423411 0.23887119,14.230602 -0.07645893,11.31687 -0.08174877,9.541289 0.23583405,6.6339174 0.25806206,6.4304281 0.41989641,6.2694408 0.62366267,6.2499199 1.9463297,6.1231942 2.8162992,6.1326746 4.1438595,6.2540901 c 0.1938789,0.017731 0.3555462,0.1626074 0.3771972,0.3560862 0.032951,0.2945034 0.018341,0.5300541 -0.049722,0.8291877 z m -0.7236229,3.914808 c -0.099315,0.332315 -0.3468457,0.589627 -0.6573998,0.708332 L 3.9635414,9.1392712 C 4.15309,9.401683 4.2277534,9.747399 4.1247287,10.092214 Z"
     fill="#d9d9d9"
     id="path12"
     style="stroke-width:1.00005" />
  <path
     d="m 18.101453,7.4610849 h 0.245211 L 18.202958,6.8499072 c -0.0663,0.020961 -0.136006,0.043352 -0.20881,0.066993 -0.731233,0.2375008 -1.76378,0.6007873 -2.561216,0.8978108 h 1.746779 c 0.0453,-0.1272558 0.167108,-0.2176299 0.309014,-0.2176299 h 0.319915 c 0.0703,-0.083324 0.175508,-0.1359962 0.292813,-0.1359962 z"
     fill="#d9d9d9"
     id="path13"
     style="stroke-width:1.00005" />
  <path
     d="m 12.485798,8.9047605 c -0.113805,0.066593 -0.210009,0.1369462 -0.281313,0.2114096 -0.400618,0.4187189 -0.395218,0.9087409 -0.263812,1.3386609 0.0076,0.0247 0.0155,0.0492 0.0239,0.0735 0.0429,0.125106 0.0955,0.244311 0.150406,0.354216 6e-4,0.0011 0.0011,0.0021 0.0017,0.0032 0.0037,0.0073 0.0077,0.0141 0.0119,0.0204 0.0678,0.103005 0.188709,0.0875 0.346116,0.0577 l 0.0064,-0.0012 c 0.0092,-0.0017 0.0184,-0.0035 0.0278,-0.0053 l 0.015,-0.0029 c 0.009,-0.0017 0.0182,-0.0035 0.0274,-0.0052 0.0354,-0.0067 0.0724,-0.0132 0.110805,-0.0187 0.0393,-0.0057 0.08,-0.0102 0.121906,-0.0125 0.0194,-0.0011 0.039,-0.0017 0.0588,-0.0018 0.0142,0 0.0285,2e-4 0.0429,8e-4 0.09271,0.0037 0.190309,0.0209 0.291414,0.0616 0.504223,0.202809 0.508723,0.66143 0.386217,0.960943 -0.0962,0.235011 -0.211409,0.467822 -0.336815,0.695432 -0.253312,0.459721 -0.548125,0.897741 -0.810737,1.288058 -0.341616,0.507724 -0.628929,0.934643 -0.699732,1.223156 -0.0424,0.172808 -0.006,0.286213 0.142507,0.312614 0.728733,0.129506 1.310559,0.238511 2.001791,0.368017 0.250011,0.0468 0.515323,0.0965 0.806036,0.150707 0.272713,0.0508 0.475622,0.0257 0.524424,-0.184809 0.023,-0.0992 -0.0523,-0.165307 -0.167508,-0.241511 0,0 0.0116,0.0077 2e-4,2e-4 l -10e-5,-10e-5 -10e-5,-10e-5 c -0.0786,-0.0519 -0.149506,-0.0988 -0.125605,-0.165107 0.531824,-1.477567 1.55507,-3.907378 2.132297,-4.585108 0.0324,-0.0381 0.0628,-0.0743 0.0917,-0.108805 l 0.0123,-0.0147 c 0.323015,-0.385617 0.469022,-0.560025 1.256157,-0.783636 0.143107,-0.0407 0.307514,-0.083 0.498123,-0.128605 L 18.769084,9.2583066 h -0.667631 c -0.117305,0 -0.22251,-0.052672 -0.292813,-0.1359962 h -0.319915 c -0.141806,0 -0.263712,-0.090334 -0.309014,-0.2175499 z"
     fill="#d9d9d9"
     id="path14"
     style="stroke-width:1.00005" />
  <path
     d="m 33.467351,8.0631623 c -0.0059,0.0085 -0.0226,0.040672 -0.0226,0.1775881 V 9.738598 c 0,0.0264 0.0069,0.0375 0.0192,0.0491 0.0165,0.0155 0.0506,0.0363 0.111905,0.0532 h 7.939161 c 0.0703,-0.0315 0.115705,-0.0727 0.145107,-0.116105 0.0342,-0.0506 0.0549,-0.116806 0.0549,-0.200209 v -1.2036 c 0,-0.1600273 -0.0857,-0.2705023 -0.195409,-0.3163044 h -7.93686 c -0.09671,0.032541 -0.112406,0.054263 -0.115406,0.058483 z"
     fill="#d9d9d9"
     id="path15"
     style="stroke-width:1.00005" />
  <defs
     id="defs18">
    <radialGradient
       id="paint0_radial_1354_46"
       cx="0"
       cy="0"
       r="1"
       gradientUnits="userSpaceOnUse"
       gradientTransform="matrix(0,0.79244498,-0.79244498,0,20.118544,5.4528135)">
      <stop
         stop-color="#F2FF00"
         id="stop15" />
      <stop
         offset="1"
         stop-color="#F2FF00"
         stop-opacity="0"
         id="stop16" />
    </radialGradient>
    <radialGradient
       id="paint1_radial_1354_46"
       cx="0"
       cy="0"
       r="1"
       gradientUnits="userSpaceOnUse"
       gradientTransform="matrix(13.495513,0,0,19.726496,47.370282,7.1477105)">
      <stop
         stop-color="#E46767"
         id="stop17" />
      <stop
         offset="1"
         stop-color="#D9D9D9"
         id="stop18" />
    </radialGradient>
  </defs>
</svg>

<svg xmlns="http://www.w3.org/2000/svg" width="60.866" height="16" fill="none"><circle cx="20.119" cy="5.453" r=".792" fill="url(#a)" style="fill:url(#a);stroke-width:1.00005"/><path fill="url(#b)" d="M58.863 2.531 47.37 6.523l.574.348-.574.438.715.51-.715.298 12.345 2.564-3.973-2.863 5.124-1.421-5.384-.677Z" style="fill:url(#b);stroke-width:1.00005"/><path fill="#c65353" d="M45.88 3.26h.921v.861h.861v.921h-.86v.861h-.922v-.86h-.861V4.12h.861zm-1.69.185h-.822v-.768H42.6v-.822h.768v-.768h.822v.768h.768v.822h-.768zM41.745 5.05h-.72v-.674h-.674v-.72h.674v-.673h.72v.673h.673v.72h-.673zM39.338.736h.672v.63h.629v.671h-.63v.63h-.671v-.63h-.63v-.672h.63zM36.863 2.12h.61v.57h.57v.61h-.57v.57h-.61V3.3h-.57v-.61h.57zM35.074 0h.512v.48h.48v.513h-.48v.48h-.512v-.48h-.48V.48h.48zm-3.029 1.996h.305v.285h.285v.305h-.285v.286h-.305v-.286h-.285v-.305h.285z" style="stroke-width:1.00005"/><path fill="#d9d9d9" fill-rule="evenodd" d="M23.28 5.353a.6.6 0 0 1 .42.17c.052.046.104.104.152.156q.07.078.151.157c.216.205.554.422 1.337.422h1.994c.061 0 .114.025.154.048q.046.027.09.058h.001l.013.01.015.01c.08.052.147.088.218.088h17.112c.002-.001.012-.005.035-.024q.02-.016.046-.041t.057-.051a.3.3 0 0 1 .177-.077c.082-.005.156.033.221.098a.1.1 0 0 1 .078-.032h1.222c.06 0 .11.049.11.11v1.604a.11.11 0 0 1-.125.108l-1.377-.188a.11.11 0 0 1-.094-.108V6.608q0-.045.032-.077c-.038-.037-.055-.035-.056-.035-.005 0-.02.004-.05.028l-.046.042-.055.05a.28.28 0 0 1-.174.073h.13v1.15h-.017v.08s-.322.028-.537.241c-.215.214-.215.375-.215.375v.695h-.43v.482h-1.774v-.16h-.162V8.4h.162v-.187h.054V7.84h-.473a.5.5 0 0 0-.119-.054H33.55c-.214.066-.293.138-.315.31l-5.594.19V6.69h.185a.6.6 0 0 1-.34-.125l-.106-.07-.034-.016-.01-.003h-.017c.057.003.103.05.103.107v3.076c0 .06-.048.107-.107.107h-.807v-.12a.215.215 0 0 0-.215-.214H23.04a.214.214 0 0 0-.215.214v.12h-3.712l-.12-.507h1.513a.38.38 0 0 0 .293-.136h.241c.18 0 .328-.145.328-.327v-.012a.544.544 0 0 0 0-.846v-.012a.33.33 0 0 0-.328-.328h-.24a.38.38 0 0 0-.294-.136h-1.935l-.158-.673c.632-.181 1.25-.299 1.575-.311v-.22h.055l-.517-1.54a.11.11 0 0 1 .115-.146l3.53.422c.055.006.092.053.097.108zm.097.905h-.054l-.033-.687c.11.003.185.044.263.113.043.039.09.09.14.143q.069.079.159.166c.257.244.644.477 1.459.482h-1.934zM42.794 7.84v.374h1.075V7.84z" clip-rule="evenodd" style="stroke-width:1.00005"/><path fill="#d9d9d9" d="M33.226 8.401v1.15H27.64v-1.15Zm-14.588 1.652.276-.07h.971a.87.87 0 0 0-.352.464.7.7 0 0 0 .007.34 1 1 0 0 0 .066.156.06.06 0 0 1 0 .034c-.016.052-.095.084-.126.045-.14-.17-.215-.283-.242-.427-.023-.118-.002-.237.045-.388l.008-.026a.6.6 0 0 0-.174.413c-.007.228.134.375.376.509.15.083.36.087.581.092l.064.001c.564.014.887-.32.887-.655a.58.58 0 0 0-.332-.557h.956c-.247.163-.396.358-.396.503v.107c0 .348-.282.723-.537.75-.305.031-.74.045-1.035 0-.524-.08-.793-.455-.793-.683v-.2c0-.11-.109-.28-.25-.408" style="stroke-width:1.00005"/><path fill="#d9d9d9" fill-rule="evenodd" d="m4.471 7.44-.177.593h13.085v-.108a.11.11 0 0 1 .11-.11h.45a.164.164 0 0 1 .162-.135h2.405c.082 0 .15.059.162.136h.372c.06 0 .11.048.11.109v.133a.326.326 0 0 1 0 .603v.134a.11.11 0 0 1-.11.109h-.372a.164.164 0 0 1-.162.136h-2.405a.164.164 0 0 1-.161-.136h-.451a.11.11 0 0 1-.11-.11v-.108H6.043c-.483 0-.909.317-1.047.78l-.759 2.54a1.09 1.09 0 0 1-1.047.781h-.316l-.45 1.51a.43.43 0 0 1-.346.302 4.7 4.7 0 0 1-1.48.009.424.424 0 0 1-.36-.377c-.314-2.914-.32-4.69-.002-7.597a.43.43 0 0 1 .388-.384c1.322-.127 2.192-.117 3.52.004a.41.41 0 0 1 .377.356c.033.295.018.53-.05.83m-.723 3.914c-.1.332-.347.59-.658.709l.874-2.924c.19.263.264.608.16.953Z" clip-rule="evenodd" style="stroke-width:1.00005"/><path fill="#d9d9d9" d="M18.101 7.461h.246l-.144-.611q-.1.03-.209.067c-.731.237-1.764.6-2.561.898h1.747a.33.33 0 0 1 .309-.218h.32a.38.38 0 0 1 .292-.136m-5.615 1.444q-.173.1-.282.211c-.4.419-.395.909-.263 1.339q.01.037.024.073c.042.125.095.245.15.355l.002.003.012.02c.067.103.188.088.346.058l.006-.001.028-.006.015-.003.027-.005a3 3 0 0 1 .233-.031 1 1 0 0 1 .102-.001c.092.004.19.02.291.062.504.202.509.661.386.96a7 7 0 0 1-.336.696c-.254.46-.549.898-.811 1.288-.342.508-.63.935-.7 1.223-.042.173-.006.286.143.313.728.13 1.31.238 2.001.368l.806.15c.273.051.476.026.525-.184.023-.1-.052-.166-.168-.242 0 0 .012.008 0 0-.078-.052-.15-.099-.125-.165.532-1.477 1.555-3.907 2.132-4.585l.092-.109.012-.014c.323-.386.469-.56 1.256-.784q.214-.06.498-.129l-.119-.507h-.668a.38.38 0 0 1-.292-.136h-.32a.33.33 0 0 1-.31-.217zm20.981-.842c-.006.009-.022.04-.022.178v1.498c0 .026.007.037.019.049.016.015.05.036.112.053h7.939a.33.33 0 0 0 .145-.116.35.35 0 0 0 .055-.2V8.32c0-.16-.086-.27-.195-.316h-7.937c-.097.032-.113.054-.116.058" style="stroke-width:1.00005"/><defs><radialGradient id="a" cx="0" cy="0" r="1" gradientTransform="rotate(90 7.333 12.786)scale(.79244)" gradientUnits="userSpaceOnUse"><stop stop-color="#F2FF00"/><stop offset="1" stop-color="#F2FF00" stop-opacity="0"/></radialGradient><radialGradient id="b" cx="0" cy="0" r="1" gradientTransform="matrix(13.49551 0 0 19.7265 47.37 7.148)" gradientUnits="userSpaceOnUse"><stop stop-color="#E46767"/><stop offset="1" stop-color="#D9D9D9"/></radialGradient></defs></svg>
